X: 10062
T: WILL YOU COME TO THE BOWER
C:
%R: march
B: Elias Howe "The Musician's Companion" Part 1 1842 p.6 #2
S: http://imslp.org/wiki/The_Musician's_Companion_(Howe,_Elias)
Z: 2015 John Chambers <jc:trillian.mit.edu>
M: 2/4
L: 1/8
K: G
% - - - - - - - - - - - - - - - - - - - - - - - - -
Bc |\
d2 dd | d2 dd | dgfe | e2 zd |\
(dc).c.c | (cB).B.B | (dc)(BA) | G3z ::\
GBBB | GBBB | dcAc | (cB)A2 |\
GBBB | GB dg | dBcA | G3 :|
% - - - - - - - - - - - - - - - - - - - - - - - - -


